assets/initials.svg

<?xml version="1.0" encoding="UTF-8"?>
<svg width="256px" height="256px" viewBox="0 0 256 256" version="1.1" xmlns="http://www.w3.org/2000/svg" xmlns:xlink="http://www.w3.org/1999/xlink">
    <title>Artboard</title>
    <g id="Artboard" stroke="none" stroke-width="1" fill="none" fill-rule="evenodd">
        <rect fill="#00CC88" x="0" y="0" width="256" height="256"></rect>
        <g id="Group" transform="translate(40, 87)" fill="#FFFFFF" fill-rule="nonzero">
            <polygon id="F" points="9.92825112 71 9.92825112 42.4516971 39.3452915 42.4516971 39.3452915 34.2950392 9.92825112 34.2950392 9.92825112 8.34203655 41 8.34203655 41 0 0 0 0 71"></polygon>
            <path d="M89.0898997,64.5856377 C97.7298956,64.5856377 104.347765,61.6327219 108.943507,55.3577759 C114.017157,47.2602004 116.45828,37.7795365 115.929036,28.2278619 C107.143111,31.0655478 97.6919945,31.0655478 88.90607,28.2278619 C84.4941571,22.3220303 77.8762879,19 69.4201217,19 C60.596296,19 53.9784268,22.3220303 49.1988546,28.2278619 C58.0226802,25.6440606 67.5818247,25.6440606 76.2218206,28.2278619 C76.2218206,40.4086396 78.6116067,49.4519442 83.2073492,55.7268903 C87.4354324,62.0018364 94.2371313,64.9547522 102.693298,64.9547522 L89.0898997,64.5856377 Z M89.0898997,56.8342338 C84.1264977,56.8342338 79.8984146,54.2504324 77.3247988,49.4519442 C98.7740651,54.8133459 112.870966,75.3945541 110.180836,97.4211353 C107.490706,119.447717 88.8586511,136 66.754591,136 C44.6505309,136 26.0184762,119.447717 23.328346,97.4211353 C20.6382158,75.3945541 34.7351169,54.8133459 56.1843832,49.4519442 C56.1843832,30.8116632 61.6992742,21.5838013 72.5452266,21.5838013 C83.2073492,21.5838013 88.5384106,30.8116632 88.5384106,49.267387 C88.5384106,58.4952489 87.2516027,65.8775384 84.8618165,70.6760266 C78.7389021,68.8433015 74.8827261,62.7777773 75.8051396,56.4304391 C76.7275532,50.083101 82.1491592,45.3765441 88.5384106,45.3765441 C94.9276619,45.3765441 100.349268,50.083101 101.271682,56.4304391 C102.194095,62.7777773 98.337919,68.8433015 92.2150046,70.6760266 L89.0898997,56.8342338 Z" id="o1"></path>
            <path d="M123,37.8778626 C134.627517,37.8778626 143.11745,31.562341 148.285235,18.5597964 L139.979866,15.216285 C138.134228,20.2315522 135.550336,23.9465649 132.597315,26.3613232 C134.552767,20.0906861 140.412468,15.8933115 146.939835,16.087603 C153.467202,16.2818944 159.070184,20.8204634 160.653996,27.196449 C162.237807,33.5724345 159.416149,40.2307075 153.747555,43.4935967 C148.07896,46.7564858 140.946022,45.8281591 136.288591,41.221374 C136.288591,31.7480916 137.580537,24.5038168 140.533557,20.0458015 C143.399604,15.5019974 148.482812,12.8729951 153.822148,13.173028 C157.513423,13.173028 160.466443,14.4732824 163.050336,16.7022901 C165.963015,19.147407 168.136872,22.3648129 169.325503,25.9898219 L178,22.6463104 C173.57047,10.9440204 165.449664,5 153.637584,5 C135.181208,5 125.768456,17.0737913 125.768456,41.4071247 C125.768456,53.2951654 128.167785,62.3969466 133.151007,68.7124682 C137.949664,75.0279898 145.147651,78 154.191275,78 L123,37.8778626 Z" id="c"></path>
        </g>
    </g>
</svg>

<svg viewBox="0 0 256 256" xmlns="http://www.w3.org/2000/svg"><g fill="none"><path fill="#0C8" d="M0 0H256V256H0z"/><g transform="translate(40 87)" fill="#FFF"><path d="M9.92825112 71L9.92825112 42.4516971 39.3452915 42.4516971 39.3452915 34.2950392 9.92825112 34.2950392 9.92825112 8.34203655 41 8.34203655 41 0 0 0 0 71z"/><path d="M89.09 64.586c8.64 0 15.258-2.953 19.854-9.228a46.28 46.28 0 0 0 6.985-27.13 43.954 43.954 0 0 1-27.023 0C84.494 22.322 77.876 19 69.42 19c-8.824 0-15.442 3.322-20.221 9.228 8.824-2.584 18.383-2.584 27.023 0 0 12.18 2.39 21.224 6.985 27.499 4.228 6.275 11.03 9.228 19.486 9.228l-13.603-.37zm0-7.752c-4.964 0-9.192-2.584-11.765-7.382 21.45 5.361 35.546 25.943 32.856 47.97C107.49 119.447 88.859 136 66.755 136c-22.104 0-40.737-16.552-43.427-38.579-2.69-22.026 11.407-42.608 32.856-47.97 0-18.64 5.515-27.867 16.361-27.867 10.662 0 15.993 9.228 15.993 27.683 0 9.228-1.286 16.61-3.676 21.409-6.123-1.833-9.98-7.898-9.057-14.246.923-6.347 6.344-11.053 12.733-11.053 6.39 0 11.811 4.706 12.734 11.053.922 6.348-2.934 12.413-9.057 14.246L89.09 56.834zM123 37.878c11.628 0 20.117-6.316 25.285-19.318l-8.305-3.344c-1.846 5.016-4.43 8.73-7.383 11.145 1.956-6.27 7.815-10.468 14.343-10.273 6.527.194 12.13 4.732 13.714 11.108 1.584 6.376-1.238 13.035-6.906 16.298a14.51 14.51 0 0 1-17.46-2.273c0-9.473 1.293-16.717 4.246-21.175a14.738 14.738 0 0 1 13.288-6.873c3.691 0 6.644 1.3 9.228 3.53a20.438 20.438 0 0 1 6.276 9.287L178 22.646C173.57 10.944 165.45 5 153.638 5c-18.457 0-27.87 12.074-27.87 36.407 0 11.888 2.4 20.99 7.383 27.305C137.95 75.028 145.148 78 154.191 78L123 37.878z"/></g></g></svg>
